svg/fluentui-system-icons/ic_fluent_album_add_20_regular.svg

<svg width="20" height="20" viewBox="0 0 20 20" fill="none" xmlns="http://www.w3.org/2000/svg">
<path d="M2 6C2 4.89543 2.89543 4 4 4H16C17.1046 4 18 4.89543 18 6V14C18 15.1046 17.1046 16 16 16H10.4003C10.5622 15.6832 10.6944 15.3486 10.793 15H16C16.5523 15 17 14.5523 17 14V6C17 5.44772 16.5523 5 16 5H6V8.02242C5.83532 8.00758 5.66854 8 5.5 8C5.33146 8 5.16468 8.00758 5 8.02242V5H4C3.44772 5 3 5.44772 3 6V8.59971C2.64222 8.78261 2.30711 9.00353 2 9.25716V6ZM13.5 11H10.4003C10.2174 10.6422 9.99647 10.3071 9.74284 10H13.5C13.7761 10 14 9.77614 14 9.5V8.5C14 8.22386 13.7761 8 13.5 8H9.5C9.22386 8 9 8.22386 9 8.5V9.25716C8.69289 9.00353 8.35778 8.78261 8 8.59971V8.5C8 7.67157 8.67157 7 9.5 7H13.5C14.3284 7 15 7.67157 15 8.5V9.5C15 10.3284 14.3284 11 13.5 11ZM10 13.5C10 15.9853 7.98528 18 5.5 18C3.01472 18 1 15.9853 1 13.5C1 11.0147 3.01472 9 5.5 9C7.98528 9 10 11.0147 10 13.5ZM6 11.5C6 11.2239 5.77614 11 5.5 11C5.22386 11 5 11.2239 5 11.5V13H3.5C3.22386 13 3 13.2239 3 13.5C3 13.7761 3.22386 14 3.5 14H5L5 15.5C5 15.7761 5.22386 16 5.5 16C5.77614 16 6 15.7761 6 15.5V14H7.5C7.77614 14 8 13.7761 8 13.5C8 13.2239 7.77614 13 7.5 13H6V11.5Z" fill="#212121"/>
</svg>

<svg xmlns="http://www.w3.org/2000/svg" width="20" height="20"><path d="M2 6a2 2 0 0 1 2-2h12a2 2 0 0 1 2 2v8a2 2 0 0 1-2 2h-5.6c.162-.317.294-.651.393-1H16a1 1 0 0 0 1-1V6a1 1 0 0 0-1-1H6v3.022a5.57 5.57 0 0 0-1 0V5H4a1 1 0 0 0-1 1v2.6a5.508 5.508 0 0 0-1 .657V6Zm11.5 5h-3.1a5.507 5.507 0 0 0-.657-1H13.5a.5.5 0 0 0 .5-.5v-1a.5.5 0 0 0-.5-.5h-4a.5.5 0 0 0-.5.5v.757A5.508 5.508 0 0 0 8 8.6v-.1A1.5 1.5 0 0 1 9.5 7h4A1.5 1.5 0 0 1 15 8.5v1a1.5 1.5 0 0 1-1.5 1.5ZM10 13.5a4.5 4.5 0 1 1-9 0 4.5 4.5 0 0 1 9 0Zm-4-2a.5.5 0 0 0-1 0V13H3.5a.5.5 0 0 0 0 1H5v1.5a.5.5 0 0 0 1 0V14h1.5a.5.5 0 0 0 0-1H6v-1.5Z"/></svg>
